X: 3
T: Scotty O'Neil
I: RJ R-32 D reel
C: Bob McQuillen 1973
M: C|
R: reel
K: D
AG | "D"F2D2 A2F2 | "G"dedc BABc |\
[1,3 "D"d2A2 G2F2 | "A"F2E2- E2 :|\
[2,4 "D"d2A2 "A"ABAG | "D"F2D2- D2 :|
|: AG |\
"D"F2A2 f2e2 | "G"d2c2 B3c |\
"D"d2A2 G2F2 | "A"F2E2- E2AG ||\
"D"F2D2 f3e | "G"dedc BABc |\
"D"d2A2 "A"ABAG | "D"F2D2- D2 :|

